X: 6
T: Roslyn Castle
R: reel
M: 4/4
L: 1/8
K: Emin
V:1
GF|"Em"E2 Bc B2 AB | "Am"cB AG "Bm"F2 GF |"Em"E2 ef g2 fe |"D"^de f^d "Bm"B2 AB |
V:2
zz|G4 E4 | e2 c2 B4 | E2 GA B4 | A4 F4 |
V:1
"Am"cB AG "B"F2 GA | "Em"BG FE "D"d2 ef | "Em"ge "D"f^d "C"eB AB | "Em"G2 "B"FE "Em" E2 E2 :||
V:2
e2 c2 B4 | e2 c2 f4 | ec dB cB cd | E2 F2 G2 G2 :||
V:1
B|"Em"e2 ef g2 fe | "Am"ba ga "Bm"f2 gf | "Em"eB ef "Em"g2 fe| "C"ba ga "Bm"f2 AB |
V:2
z|g4 g4 | f2 e2 ^d2 ed | e2 ef g4 | f2 e2 ^d4 |
V:1
"Am"cB AG "B"F2 GA | "Em"BG FE "D"d2 ef | "Em"ge "D"f^d "C"eB AB | "Em"G2 "B"FE "Em"E2 E2 :||
V:2
E2 c2 B4 | e2 c2 A4 | BG AF ge dB | E2 F2 G2 G2 :||


Tune 4150	Setting 16913

